symbols/web/filter_8/materialsymbolssharp/filter_8_wght600fill1_48px.svg

<svg xmlns="http://www.w3.org/2000/svg" height="48" width="48"><path d="m23.05 19.9-1.65 1.5v9.2h12.15v-9.2l-1.65-1.5 1.65-1.5V9.25H21.4v9.15Zm7.2-7.3v5.8h-5.5v-5.8Zm0 8.8v5.9h-5.5v-5.9ZM9.75 38.25V2.8H45.2v35.45ZM2.8 45.2V9.75h3.95v31.5h31.5v3.95Z"/></svg>

<svg xmlns="http://www.w3.org/2000/svg" height="48" width="48"><path d="M23.05 19.9 21.4 21.4V30.6H33.55V21.4L31.9 19.9L33.55 18.4V9.25H21.4V18.4ZM30.25 12.6V18.4H24.75V12.6ZM30.25 21.4V27.3H24.75V21.4ZM9.75 38.25V2.8H45.2V38.25ZM2.8 45.2V9.75H6.75V41.25H38.25V45.2Z"/></svg>
